public/assets/img/tech-logo/figma.svg

<svg width="100" height="100" viewBox="0 0 100 100" fill="none" xmlns="http://www.w3.org/2000/svg">
<g id="figma">
<g id="figma_2">
<path id="Vector" d="M33.3334 100.001C42.5334 100.001 50.0001 92.5339 50.0001 83.3339V66.6672H33.3334C24.1334 66.6672 16.6667 74.1339 16.6667 83.3339C16.6667 92.5339 24.1334 100.001 33.3334 100.001Z" fill="#0ACF83"/>
<path id="Vector_2" d="M16.6667 50.0004C16.6667 40.8004 24.1334 33.3337 33.3334 33.3337H50.0001V66.667H33.3334C24.1334 66.667 16.6667 59.2004 16.6667 50.0004Z" fill="#A259FF"/>
<path id="Vector_3" d="M16.6667 16.6671C16.6667 7.46715 24.1334 0.000488281 33.3334 0.000488281H50.0001V33.3338H33.3334C24.1334 33.3338 16.6667 25.8671 16.6667 16.6671Z" fill="#F24E1E"/>
<path id="Vector_4" d="M50 0.000488281H66.6667C75.8667 0.000488281 83.3334 7.46715 83.3334 16.6671C83.3334 25.8671 75.8667 33.3338 66.6667 33.3338H50V0.000488281Z" fill="#FF7262"/>
<path id="Vector_5" d="M83.3334 50.0004C83.3334 59.2004 75.8667 66.667 66.6667 66.667C57.4667 66.667 50 59.2004 50 50.0004C50 40.8004 57.4667 33.3337 66.6667 33.3337C75.8667 33.3337 83.3334 40.8004 83.3334 50.0004Z" fill="#1ABCFE"/>
</g>
</g>
</svg>

<svg xmlns="http://www.w3.org/2000/svg" width="100" height="100" fill="none"><path fill="#0ACF83" d="M33.333 100.001c9.2 0 16.667-7.467 16.667-16.667V66.667H33.333c-9.2 0-16.666 7.467-16.666 16.667S24.133 100 33.333 100"/><path fill="#A259FF" d="M16.667 50c0-9.2 7.466-16.666 16.666-16.666H50v33.333H33.333c-9.2 0-16.666-7.467-16.666-16.667"/><path fill="#F24E1E" d="M16.667 16.667C16.667 7.467 24.133 0 33.333 0H50v33.334H33.333c-9.2 0-16.666-7.467-16.666-16.667"/><path fill="#FF7262" d="M50 0h16.667c9.2 0 16.666 7.467 16.666 16.667s-7.466 16.667-16.666 16.667H50z"/><path fill="#1ABCFE" d="M83.333 50c0 9.2-7.466 16.667-16.666 16.667S50 59.2 50 50s7.467-16.666 16.667-16.666S83.333 40.8 83.333 50"/></svg>
